X:1
T:023 - Deus, Fonte da Vida
T:Letra: Henry Maxwell Wright (1849-1931)
T:Música: James Douglas Macey (1860 - ?)
M:4/4
L:1/4
K:D
V:1
A | "D"d>c d A | "G"B d "D"A F | "Bm"B>"(A7)"A "D"A F | DF "A"EA | "D"F>G Ad | "C#7"c>B "F#m"A "(D#dim)"A | "Em"G2 "A7"E2 | "D"D3 |]
w: 1.~Ó Deus do céu, da ter-rae mar, Hu-mil-des vi-mos-tea-do-rar; O teu a-mor, sim, ce-le-brar,           Que tu-do dás.  
w: 2.~A luz be-nig-na, luz so-lar, Ea bri-sa bran-dae sa-lu-tar, Que vem a tu-do re-no-var,            Sim, tu-do dás.  
w: 3.~A ver-de rel-va,a lin-da flor, De ri-cos fru-tos o pe-nhor, Pro-cla-mam teu cons-tan-tea-mor.            Sim, tu-do dás.  
w: 4.~Tu, por um mun-do pe-ca-dor Teu Fi-lho des-te,o Sal-va-dor; Com e-le tu-do dás, Se-nhor.             Sim, tu-do dás.  
w: 5.~Dás vi-daaos mor-tos e per-dão, Dás aos per-di-dos sal-va-ção, De paz en-chen-doo co-ra-ção.              Sim, tu-do dás.  
w: 6.~Pu-re-za dás e dás po-der, A gra-ça que nos é mis-ter, Por ti vi-ver, por ti mor-rer.              Sim, tu-do dás,  
w: 7.~En-si-na-nos, Se-nhor, aa-mar; En-si-na-nos, Se-nhor, a dar, Ea Ti a vi-da con-sa-grar,               Pois tu-do dás.
W:				                    
W: 
W: 1. Ó Deus do céu, da terra e mar,
W: Humildes vimos-te adorar;
W: O teu amor, sim, celebrar,
W:           Que tudo dás.
W: 
W: 2. A luz benigna, luz solar,
W: E a brisa branda e salutar,
W: Que vem a tudo renovar,
W:            Sim, tudo dás.
W: 
W: 3. A verde relva, a linda flor,
W: De ricos frutos o penhor,
W: Proclamam teu constante amor.
W:            Sim, tudo dás.
W: 
W: 4. Tu, por um mundo pecador
W: Teu Filho deste, o Salvador;
W: Com ele tudo dás, Senhor.
W:             Sim, tudo dás.
W: 
W: 
W: 
W: 5. Dás vida aos mortos e perdão,
W: Dás aos perdidos salvação,
W: De paz enchendo o coração.
W:              Sim, tudo dás.
W: 
W: 6. Pureza dás e dás poder,
W: A graça que nos é mister,
W: Por ti viver, por ti morrer.
W:              Sim, tudo dás,
W: 
W: 7. Ensina-nos, Senhor, a amar;
W: Ensina-nos, Senhor, a dar,
W: E a Ti a vida consagrar,
W:               Pois tudo dás.
W:         
W: 





